src/icons/move.svg

<?xml version="1.0" encoding="UTF-8"?>
<!DOCTYPE svg  PUBLIC '-//W3C//DTD SVG 1.1//EN'  'http://www.w3.org/Graphics/SVG/1.1/DTD/svg11.dtd'>
<svg version="1.1" viewBox="0 0 640 640" xmlns="http://www.w3.org/2000/svg" xmlns:xlink="http://www.w3.org/1999/xlink">
<defs>
<path id="b" d="m326.88 298.88c-12.13 0-21.96-9.84-21.96-21.97v-37.77c0-12.13 9.83-21.97 21.96-21.97 12.14 0 21.97 9.84 21.97 21.97v37.77c-6.55 14.65-13.88 21.97-21.97 21.97z"/>
<path id="d" d="m360.46 232.22v52.38c0 12.33-8.08 22.95-19.7 27.74v28.16h113.31v-94.57c0-53.56-44.87-96.97-100.21-96.97h-13.1v55.52c13.13 10.27 19.7 19.52 19.7 27.74z"/>
<path id="c" d="m199.7 421.97c0 53.56 44.87 96.97 100.21 96.97h53.95c55.34 0 100.21-43.41 100.21-96.97v-73.38h-254.37v73.38z"/>
<path id="a" d="m313.01 312.34c-11.62-4.79-19.7-15.41-19.7-27.74v-52.38c0-12.33 8.08-22.95 19.7-27.74v-55.52h-13.1c-55.34 0-100.21 43.41-100.21 96.97v94.57h113.31v-28.16z"/>
<path id="f" d="m494.43 269.5 68.92 71-68.92 71v-45.01h-32.51v-52.1h32.51v-44.89z"/>
<path id="e" d="m158.97 269.5-68.91 71 68.91 71v-45.01h32.52v-52.1h-32.52v-44.89z"/>
<path id="h" d="m397.89 110.9-71.01-68.91-71 68.91h45.02v32.52h52.09v-32.52h44.9z"/>
<path id="g" d="m397.41 556.21-71 68.92-71-68.92h45.01v-32.51h52.1v32.51h44.89z"/>
</defs>
<use fill="#020202" xlink:href="#b"/>
<use fill-opacity="0" stroke="#000000" stroke-opacity="0" xlink:href="#b"/>
<use fill="#020202" xlink:href="#d"/>
<use fill-opacity="0" stroke="#000000" stroke-opacity="0" xlink:href="#d"/>
<use fill="#020202" xlink:href="#c"/>
<use fill-opacity="0" stroke="#000000" stroke-opacity="0" xlink:href="#c"/>
<use fill="#020202" xlink:href="#a"/>
<use fill-opacity="0" stroke="#000000" stroke-opacity="0" xlink:href="#a"/>
<use fill="#000000" xlink:href="#f"/>
<use fill="#000000" xlink:href="#e"/>
<use fill="#000000" xlink:href="#h"/>
<use fill="#000000" xlink:href="#g"/>
</svg>

<?xml version="1.0" encoding="UTF-8" standalone="no"?>
<!DOCTYPE svg PUBLIC "-//W3C//DTD SVG 1.1//EN" "http://www.w3.org/Graphics/SVG/1.1/DTD/svg11.dtd">
<svg version="1.1" xmlns="http://www.w3.org/2000/svg" xmlns:xlink="http://www.w3.org/1999/xlink" preserveAspectRatio="xMidYMid meet" viewBox="0 0 640 640" width="640" height="640"><defs><path d="M326.88 298.88C326.88 298.88 326.88 298.88 326.88 298.88C314.75 298.88 304.92 289.04 304.92 276.91C304.92 273.13 304.92 242.92 304.92 239.14C304.92 227.01 314.75 217.17 326.88 217.17C326.88 217.17 326.88 217.17 326.88 217.17C339.02 217.17 348.85 227.01 348.85 239.14C348.85 241.66 348.85 254.25 348.85 276.91C342.3 291.56 334.97 298.88 326.88 298.88Z" id="a3YmE0kYNk"></path><path d="M360.46 232.22C360.46 237.46 360.46 279.36 360.46 284.6C360.46 296.93 352.38 307.55 340.76 312.34C340.76 314.22 340.76 323.6 340.76 340.5L454.07 340.5C454.07 283.76 454.07 252.23 454.07 245.93C454.07 192.37 409.2 148.96 353.86 148.96C352.99 148.96 348.62 148.96 340.76 148.96L340.76 204.48C353.89 214.75 360.46 224 360.46 232.22Z" id="a123Rizl1h"></path><path d="M199.7 421.97C199.7 475.53 244.57 518.94 299.91 518.94C305.3 518.94 348.47 518.94 353.86 518.94C409.2 518.94 454.07 475.53 454.07 421.97C454.07 417.08 454.07 392.62 454.07 348.59L199.7 348.59C199.7 392.62 199.7 417.08 199.7 421.97Z" id="a2PRuZ4XyI"></path><path d="M313.01 312.34C301.39 307.55 293.31 296.93 293.31 284.6C293.31 279.36 293.31 237.46 293.31 232.22C293.31 219.89 301.39 209.27 313.01 204.48C313.01 200.78 313.01 182.27 313.01 148.96C305.15 148.96 300.78 148.96 299.91 148.96C244.57 148.96 199.7 192.37 199.7 245.93C199.7 252.23 199.7 283.76 199.7 340.5L313.01 340.5C313.01 323.6 313.01 314.22 313.01 312.34Z" id="bOlZ8Knrm"></path><path d="M494.43 269.5L563.35 340.5L494.43 411.5L494.43 366.49L461.92 366.49L461.92 314.39L494.43 314.39L494.43 269.5Z" id="c2jJXhIrng"></path><path d="M158.97 269.5L90.06 340.5L158.97 411.5L158.97 366.49L191.49 366.49L191.49 314.39L158.97 314.39L158.97 269.5Z" id="ke7zAJ37M"></path><path d="M397.89 110.9L326.88 41.99L255.88 110.9L300.9 110.9L300.9 143.42L352.99 143.42L352.99 110.9L397.89 110.9Z" id="a4iiHlu6Tc"></path><path d="M397.41 556.21L326.41 625.13L255.41 556.21L300.42 556.21L300.42 523.7L352.52 523.7L352.52 556.21L397.41 556.21Z" id="b2XGLcPStX"></path></defs><g><g><g><use xlink:href="#a3YmE0kYNk" opacity="1" fill="#020202" fill-opacity="1"></use><g><use xlink:href="#a3YmE0kYNk" opacity="1" fill-opacity="0" stroke="#000000" stroke-width="1" stroke-opacity="0"></use></g></g><g><use xlink:href="#a123Rizl1h" opacity="1" fill="#020202" fill-opacity="1"></use><g><use xlink:href="#a123Rizl1h" opacity="1" fill-opacity="0" stroke="#000000" stroke-width="1" stroke-opacity="0"></use></g></g><g><use xlink:href="#a2PRuZ4XyI" opacity="1" fill="#020202" fill-opacity="1"></use><g><use xlink:href="#a2PRuZ4XyI" opacity="1" fill-opacity="0" stroke="#000000" stroke-width="1" stroke-opacity="0"></use></g></g><g><use xlink:href="#bOlZ8Knrm" opacity="1" fill="#020202" fill-opacity="1"></use><g><use xlink:href="#bOlZ8Knrm" opacity="1" fill-opacity="0" stroke="#000000" stroke-width="1" stroke-opacity="0"></use></g></g><g><use xlink:href="#c2jJXhIrng" opacity="1" fill="#000000" fill-opacity="1"></use></g><g><use xlink:href="#ke7zAJ37M" opacity="1" fill="#000000" fill-opacity="1"></use></g><g><use xlink:href="#a4iiHlu6Tc" opacity="1" fill="#000000" fill-opacity="1"></use></g><g><use xlink:href="#b2XGLcPStX" opacity="1" fill="#000000" fill-opacity="1"></use></g></g></g></svg>
